img/taxi-offers-img-3.svg

<svg 
 xmlns="http://www.w3.org/2000/svg"
 xmlns:xlink="http://www.w3.org/1999/xlink"
 width="45px" height="32px">
<path fill-rule="evenodd"  fill="rgb(42, 42, 42)"
 d="M1.799,-0.012 C12.152,-0.012 22.508,-0.012 32.861,-0.012 C35.475,-0.012 38.091,-0.012 40.705,-0.012 C42.058,-0.013 43.477,-0.140 44.227,0.473 C45.243,1.303 44.965,3.389 44.965,5.244 C44.965,9.425 44.965,13.607 44.965,17.789 C44.965,20.888 44.965,23.988 44.965,27.087 C44.965,28.455 45.143,30.216 44.585,31.018 C43.904,31.999 42.889,31.902 41.296,31.902 C39.440,31.902 37.584,31.902 35.729,31.902 C27.084,31.902 18.436,31.902 9.791,31.902 C7.887,31.902 5.981,31.902 4.077,31.902 C2.049,31.902 0.716,32.074 0.112,30.532 C-0.103,29.982 -0.014,29.027 -0.014,28.279 C-0.014,26.756 -0.014,25.231 -0.014,23.708 C-0.014,18.076 -0.014,12.443 -0.014,6.812 C-0.014,5.707 -0.014,4.603 -0.014,3.499 C-0.014,2.650 -0.076,1.716 0.197,1.158 C0.571,0.388 1.031,0.338 1.799,-0.012 ZM1.905,1.378 C1.126,1.825 1.314,2.378 1.314,3.565 C1.314,5.023 1.314,6.480 1.314,7.938 C1.314,13.231 1.314,18.526 1.314,23.818 C1.314,25.290 1.314,26.763 1.314,28.235 C1.314,28.768 1.185,29.689 1.377,30.090 C1.670,30.699 2.864,30.510 3.718,30.510 C5.981,30.510 8.245,30.510 10.508,30.510 C18.809,30.510 27.112,30.510 35.412,30.510 C37.401,30.510 39.391,30.510 41.380,30.510 C42.116,30.510 43.201,30.665 43.510,30.201 C43.810,29.750 43.636,27.579 43.636,26.800 C43.636,23.789 43.636,20.777 43.636,17.766 C43.636,13.703 43.636,9.638 43.636,5.575 C43.636,4.603 43.841,1.876 43.341,1.511 C42.928,1.209 41.037,1.378 40.326,1.378 C37.662,1.378 34.997,1.378 32.334,1.378 C22.192,1.378 12.047,1.378 1.905,1.378 ZM4.709,6.039 C7.956,6.039 11.204,6.039 14.452,6.039 C15.228,6.039 17.587,5.850 17.994,6.193 C18.359,6.500 18.205,8.581 18.205,9.330 C18.205,12.407 18.205,15.485 18.205,18.562 C18.205,19.341 18.366,21.695 17.994,22.007 C17.594,22.343 15.861,22.184 15.126,22.184 C12.547,22.184 9.967,22.184 7.387,22.184 C6.551,22.184 4.631,22.373 4.309,21.874 C4.085,21.528 4.203,20.158 4.203,19.578 C4.203,17.598 4.203,15.617 4.203,13.636 C4.203,11.848 4.203,10.058 4.203,8.270 C4.203,7.163 4.013,6.484 4.709,6.039 ZM21.621,6.039 C24.918,6.039 28.215,6.039 31.511,6.039 C32.437,6.039 34.670,5.687 34.400,6.878 C34.205,7.744 32.278,7.430 31.279,7.430 C28.053,7.423 24.826,7.416 21.600,7.408 C20.828,7.177 21.055,6.360 21.621,6.039 ZM5.532,7.430 C5.532,11.876 5.532,16.324 5.532,20.770 C6.031,20.770 6.530,20.770 7.029,20.770 C7.016,19.299 6.892,17.928 7.514,17.104 C8.289,16.076 10.413,16.353 12.153,16.353 C13.141,16.353 13.974,16.333 14.536,16.750 C15.568,17.518 15.412,18.948 15.400,20.770 C15.892,20.770 16.385,20.770 16.877,20.770 C16.877,16.324 16.877,11.876 16.877,7.430 C13.095,7.430 9.313,7.430 5.532,7.430 ZM10.972,8.976 C13.543,8.939 15.511,11.423 14.388,14.145 C13.918,15.285 12.915,16.038 11.563,16.265 C9.122,16.674 7.028,13.854 7.915,11.405 C8.299,10.344 9.069,9.529 10.108,9.153 C10.396,9.094 10.684,9.035 10.972,8.976 ZM21.769,9.705 C23.378,9.705 24.988,9.705 26.598,9.705 C27.299,9.705 28.222,9.660 28.074,10.500 C27.954,11.181 27.327,11.119 26.556,11.118 C25.382,11.118 24.208,11.118 23.034,11.118 C22.588,11.119 21.900,11.225 21.537,11.074 C21.136,10.908 20.933,10.182 21.347,9.860 C21.467,9.766 21.611,9.769 21.769,9.705 ZM30.204,9.705 C32.917,9.705 35.631,9.705 38.344,9.705 C39.207,9.705 40.965,9.420 40.748,10.522 C40.576,11.391 39.064,11.119 38.090,11.118 C35.448,11.118 32.804,11.118 30.162,11.118 C29.607,11.004 29.314,10.225 29.824,9.838 C29.951,9.793 30.077,9.749 30.204,9.705 ZM11.035,10.367 C10.860,10.405 10.684,10.441 10.508,10.478 C9.890,10.707 9.375,11.241 9.159,11.892 C8.649,13.423 9.934,15.159 11.478,14.873 C14.087,14.392 13.949,10.330 11.035,10.367 ZM21.748,13.394 C25.916,13.394 30.085,13.394 34.253,13.394 C35.275,13.393 38.207,12.985 37.922,14.255 C37.871,14.481 37.694,14.684 37.500,14.762 C37.254,14.863 36.823,14.807 36.509,14.807 C35.673,14.807 34.836,14.807 34.000,14.807 C29.867,14.800 25.733,14.792 21.600,14.785 C21.154,14.653 20.908,13.890 21.347,13.548 C21.481,13.497 21.614,13.445 21.748,13.394 ZM21.727,17.082 C24.088,17.082 26.451,17.082 28.812,17.082 C29.640,17.081 31.128,16.850 30.879,17.943 C30.709,18.688 29.611,18.495 28.749,18.495 C27.069,18.495 25.389,18.495 23.709,18.495 C23.144,18.495 21.980,18.633 21.537,18.451 C21.135,18.287 20.934,17.558 21.347,17.237 C21.474,17.185 21.600,17.133 21.727,17.082 ZM32.987,17.082 C34.028,17.082 35.068,17.082 36.108,17.082 C36.526,17.082 37.162,16.986 37.500,17.126 C37.728,17.220 38.019,17.524 37.922,17.943 C37.870,18.167 37.693,18.373 37.500,18.451 C37.170,18.466 36.839,18.480 36.509,18.495 C35.673,18.495 34.836,18.495 34.000,18.495 C33.568,18.495 32.945,18.572 32.671,18.385 C32.010,17.936 32.483,17.305 32.987,17.082 ZM8.357,20.770 C10.262,20.770 12.167,20.770 14.072,20.770 C14.080,20.097 14.204,18.472 13.945,18.075 C13.581,17.518 10.894,17.744 9.918,17.744 C9.450,17.744 8.901,17.690 8.631,17.899 C8.153,18.271 8.348,19.926 8.357,20.770 ZM21.727,20.770 C23.153,20.770 24.581,20.770 26.007,20.770 C26.699,20.770 27.544,20.765 27.357,21.631 C27.304,21.876 27.098,22.100 26.872,22.161 C25.544,22.169 24.215,22.176 22.887,22.184 C22.478,22.184 21.869,22.275 21.537,22.139 C21.135,21.975 20.934,21.246 21.347,20.925 C21.474,20.873 21.600,20.822 21.727,20.770 ZM29.466,20.770 C31.645,20.770 33.824,20.770 36.003,20.770 C36.807,20.770 38.163,20.576 37.922,21.631 C37.758,22.349 36.774,22.184 35.940,22.184 C34.379,22.184 32.818,22.184 31.258,22.184 C30.662,22.184 29.707,22.331 29.234,22.118 C28.869,21.953 28.700,21.253 29.065,20.946 C29.199,20.888 29.332,20.829 29.466,20.770 ZM4.815,24.459 C5.735,24.459 6.656,24.459 7.577,24.459 C7.907,24.459 8.372,24.396 8.631,24.503 C8.858,24.597 9.137,24.892 9.053,25.298 C8.876,26.154 6.754,25.850 5.742,25.850 C5.384,25.850 4.788,25.934 4.540,25.784 C3.840,25.359 4.275,24.709 4.815,24.459 ZM11.141,24.459 C12.961,24.459 14.782,24.459 16.603,24.459 C17.347,24.459 18.425,24.360 18.205,25.320 C18.056,25.969 17.321,25.850 16.560,25.850 C14.698,25.843 12.835,25.835 10.972,25.828 C10.622,25.695 10.395,25.118 10.677,24.724 C10.785,24.572 10.964,24.544 11.141,24.459 Z"/>
</svg>

<?xml version="1.0" encoding="utf-8"?>
<!-- Generator: Adobe Illustrator 23.0.1, SVG Export Plug-In . SVG Version: 6.00 Build 0)  -->
<svg version="1.1" id="Слой_1" xmlns="http://www.w3.org/2000/svg" xmlns:xlink="http://www.w3.org/1999/xlink" x="0px" y="0px"
	 viewBox="0 0 45 32" style="enable-background:new 0 0 45 32;" xml:space="preserve">
<style type="text/css">
	.st0{fill-rule:evenodd;clip-rule:evenodd;fill:#2A2A2A;}
	.st1{fill-rule:evenodd;clip-rule:evenodd;fill:#5B970D;}
</style>
<path class="st0" d="M1.8,0c10.4,0,20.7,0,31.1,0c2.6,0,5.2,0,7.8,0c1.4,0,2.8-0.1,3.5,0.5c1,0.8,0.7,2.9,0.7,4.8
	c0,4.2,0,8.4,0,12.5c0,3.1,0,6.2,0,9.3c0,1.4,0.2,3.1-0.4,3.9c-0.7,1-1.7,0.9-3.3,0.9c-1.9,0-3.7,0-5.6,0c-8.6,0-17.3,0-25.9,0
	c-1.9,0-3.8,0-5.7,0c-2,0-3.4,0.2-4-1.4C-0.1,30,0,29,0,28.3c0-1.5,0-3,0-4.6c0-5.6,0-11.3,0-16.9c0-1.1,0-2.2,0-3.3
	c0-0.8-0.1-1.8,0.2-2.3C0.6,0.4,1,0.3,1.8,0z M1.9,1.4c-0.8,0.4-0.6,1-0.6,2.2c0,1.5,0,2.9,0,4.4c0,5.3,0,10.6,0,15.9
	c0,1.5,0,2.9,0,4.4c0,0.5-0.1,1.5,0.1,1.9c0.3,0.6,1.5,0.4,2.3,0.4c2.3,0,4.5,0,6.8,0c8.3,0,16.6,0,24.9,0c2,0,4,0,6,0
	c0.7,0,1.8,0.2,2.1-0.3c0.3-0.5,0.1-2.6,0.1-3.4c0-3,0-6,0-9c0-4.1,0-8.1,0-12.2c0-1,0.2-3.7-0.3-4.1c-0.4-0.3-2.3-0.1-3-0.1
	c-2.7,0-5.3,0-8,0C22.2,1.4,12,1.4,1.9,1.4z M4.7,6c3.2,0,6.5,0,9.7,0c0.8,0,3.1-0.2,3.5,0.2c0.4,0.3,0.2,2.4,0.2,3.1
	c0,3.1,0,6.2,0,9.2c0,0.8,0.2,3.1-0.2,3.4c-0.4,0.3-2.1,0.2-2.9,0.2c-2.6,0-5.2,0-7.7,0c-0.8,0-2.8,0.2-3.1-0.3
	c-0.2-0.3-0.1-1.7-0.1-2.3c0-2,0-4,0-5.9c0-1.8,0-3.6,0-5.4C4.2,7.2,4,6.5,4.7,6z M5.5,7.4c0,4.4,0,8.9,0,13.3c0.5,0,1,0,1.5,0
	c0-1.5-0.1-2.8,0.5-3.7c0.8-1,2.9-0.8,4.6-0.8c1,0,1.8,0,2.4,0.4c1,0.8,0.9,2.2,0.9,4c0.5,0,1,0,1.5,0c0-4.4,0-8.9,0-13.3
	C13.1,7.4,9.3,7.4,5.5,7.4z M11,9c2.6,0,4.5,2.4,3.4,5.2c-0.5,1.1-1.5,1.9-2.8,2.1c-2.4,0.4-4.5-2.4-3.6-4.9
	c0.4-1.1,1.2-1.9,2.2-2.3C10.4,9.1,10.7,9,11,9z M11,10.4c-0.2,0-0.4,0.1-0.5,0.1c-0.6,0.2-1.1,0.8-1.3,1.4c-0.5,1.5,0.8,3.3,2.3,3
	C14.1,14.4,13.9,10.3,11,10.4z M8.4,20.8c1.9,0,3.8,0,5.7,0c0-0.7,0.1-2.3-0.1-2.7c-0.4-0.6-3.1-0.3-4-0.3c-0.5,0-1-0.1-1.3,0.2
	C8.2,18.3,8.3,19.9,8.4,20.8z"/>
<g>
	<path class="st1" d="M21.6,6c3.3,0,6.6,0,9.9,0c0.9,0,3.2-0.4,2.9,0.8c-0.2,0.9-2.1,0.6-3.1,0.6c-3.2,0-6.5,0-9.7,0
		C20.8,7.2,21.1,6.4,21.6,6z"/>
	<path class="st1" d="M21.8,9.7c1.6,0,3.2,0,4.8,0c0.7,0,1.6,0,1.5,0.8c-0.1,0.7-0.7,0.6-1.5,0.6c-1.2,0-2.3,0-3.5,0
		c-0.4,0-1.1,0.1-1.5,0c-0.4-0.2-0.6-0.9-0.2-1.2C21.5,9.8,21.6,9.8,21.8,9.7z"/>
	<path class="st1" d="M30.2,9.7c2.7,0,5.4,0,8.1,0c0.9,0,2.6-0.3,2.4,0.8c-0.2,0.9-1.7,0.6-2.7,0.6c-2.6,0-5.3,0-7.9,0
		c-0.6-0.1-0.8-0.9-0.3-1.3C30,9.8,30.1,9.7,30.2,9.7z"/>
	<path class="st1" d="M21.7,13.4c4.2,0,8.3,0,12.5,0c1,0,4-0.4,3.7,0.9c-0.1,0.2-0.2,0.4-0.4,0.5c-0.2,0.1-0.7,0-1,0
		c-0.8,0-1.7,0-2.5,0c-4.1,0-8.3,0-12.4,0c-0.4-0.1-0.7-0.9-0.3-1.2C21.5,13.5,21.6,13.4,21.7,13.4z"/>
	<path class="st1" d="M21.7,17.1c2.4,0,4.7,0,7.1,0c0.8,0,2.3-0.2,2.1,0.9c-0.2,0.7-1.3,0.6-2.1,0.6c-1.7,0-3.4,0-5,0
		c-0.6,0-1.7,0.1-2.2,0c-0.4-0.2-0.6-0.9-0.2-1.2C21.5,17.2,21.6,17.1,21.7,17.1z"/>
	<path class="st1" d="M33,17.1c1,0,2.1,0,3.1,0c0.4,0,1.1-0.1,1.4,0c0.2,0.1,0.5,0.4,0.4,0.8c-0.1,0.2-0.2,0.4-0.4,0.5
		c-0.3,0-0.7,0-1,0c-0.8,0-1.7,0-2.5,0c-0.4,0-1.1,0.1-1.3-0.1C32,17.9,32.5,17.3,33,17.1z"/>
	<path class="st1" d="M21.7,20.8c1.4,0,2.9,0,4.3,0c0.7,0,1.5,0,1.4,0.9c-0.1,0.2-0.3,0.5-0.5,0.5c-1.3,0-2.7,0-4,0
		c-0.4,0-1,0.1-1.3,0c-0.4-0.2-0.6-0.9-0.2-1.2C21.5,20.9,21.6,20.8,21.7,20.8z"/>
	<path class="st1" d="M29.5,20.8c2.2,0,4.4,0,6.5,0c0.8,0,2.2-0.2,1.9,0.9c-0.2,0.7-1.1,0.6-2,0.6c-1.6,0-3.1,0-4.7,0
		c-0.6,0-1.6,0.1-2-0.1c-0.4-0.2-0.5-0.9-0.2-1.2C29.2,20.9,29.3,20.8,29.5,20.8z"/>
	<path class="st1" d="M4.8,24.5c0.9,0,1.8,0,2.8,0c0.3,0,0.8-0.1,1.1,0c0.2,0.1,0.5,0.4,0.4,0.8c-0.2,0.9-2.3,0.6-3.3,0.6
		c-0.4,0-1,0.1-1.2-0.1C3.8,25.4,4.3,24.7,4.8,24.5z"/>
	<path class="st1" d="M11.1,24.5c1.8,0,3.6,0,5.5,0c0.7,0,1.8-0.1,1.6,0.9c-0.1,0.6-0.9,0.5-1.6,0.5c-1.9,0-3.7,0-5.6,0
		c-0.4-0.1-0.6-0.7-0.3-1.1C10.8,24.6,11,24.5,11.1,24.5z"/>
</g>
</svg>
